Papirus/64x64/mimetypes/image-x-3ds.svg

<?xml version="1.0" encoding="UTF-8" standalone="no"?>
<svg
   id="_图层_1"
   data-name="图层_1"
   version="1.1"
   viewBox="0 0 128 128"
   width="64"
   height="64"
   sodipodi:docname="image-x-3ds.svg"
   xml:space="preserve"
   inkscape:version="1.4 (e7c3feb100, 2024-10-09)"
   xmlns:inkscape="http://www.inkscape.org/namespaces/inkscape"
   xmlns:sodipodi="http://sodipodi.sourceforge.net/DTD/sodipodi-0.dtd"
   xmlns="http://www.w3.org/2000/svg"
   xmlns:svg="http://www.w3.org/2000/svg"><sodipodi:namedview
     id="namedview3"
     pagecolor="#505050"
     bordercolor="#eeeeee"
     borderopacity="1"
     inkscape:showpageshadow="0"
     inkscape:pageopacity="0"
     inkscape:pagecheckerboard="0"
     inkscape:deskcolor="#505050"
     inkscape:zoom="10.6875"
     inkscape:cx="32"
     inkscape:cy="26.292398"
     inkscape:window-width="1920"
     inkscape:window-height="939"
     inkscape:window-x="0"
     inkscape:window-y="34"
     inkscape:window-maximized="1"
     inkscape:current-layer="_图层_1"
     showguides="true"><sodipodi:guide
       position="7.6134526,83.439664"
       orientation="1,0"
       id="guide7"
       inkscape:locked="false" /><sodipodi:guide
       position="120.24109,71.856006"
       orientation="1,0"
       id="guide8"
       inkscape:locked="false" /></sodipodi:namedview><!-- Generator: Adobe Illustrator 29.0.1, SVG Export Plug-In . SVG Version: 2.1.0 Build 192)  --><defs
     id="defs1"><style
       id="style1">
      .st0 {
        fill: #0071e9;
      }

      .st1 {
        fill: #fff;
      }

      .st2 {
        fill: #5aaaff;
        isolation: isolate;
        opacity: .5;
      }
    </style></defs><path
     class="st0"
     d="M18.2,0c-5.6,0-10.2,4.6-10.2,10.2v107.6c0,5.6,4.6,10.2,10.2,10.2h91.6c5.6,0,10.2-4.6,10.2-10.2V40.6L82.2,0H18.2Z"
     id="path1"
     style="fill:#df393f;fill-opacity:1" /><path
     class="st2"
     d="m 82.761404,2.619883 v 29.2 c 0,3.2 2.145542,11.6 11.89801,11.6 h 24.966316 z"
     id="path2"
     style="fill:#b22e32;fill-opacity:1;stroke-width:0.987546" /><path
     class="st2"
     d="M 82.116964,0.02339171 V 29.223392 c 0,3.2 2.2,11.6 12.2,11.6 h 25.599996 z"
     id="path2-3"
     style="opacity:1;isolation:isolate;fill:#e76d71;fill-opacity:1" /><g
     id="g8"
     transform="matrix(2.5656566,0,0,2.2757772,-17.820309,-8.8282548)"><path
       style="opacity:0.2"
       d="M 18.732422,36 C 16.001557,36 14,36.380859 14,36.380859 v 1.6875 c 1.239518,-0.342264 2.630241,-0.634765 4.246094,-0.634765 1.734076,0 3.058593,0.591086 3.058594,1.425781 0,1.006421 -1.308445,1.580078 -4.125,1.580078 H 17 v 1.517578 h 0.08789 c 2.966952,0 4.654297,0.510257 4.654297,1.753907 0,1.110258 -1.509105,1.785156 -3.388672,1.785156 -1.638942,0 -3.137425,-0.397802 -4.353516,-0.783203 v 1.816406 C 14.584088,46.643917 16.133029,47 19.019531,47 22.216972,47 25,45.825412 25,43.755859 c 0,-1.735681 -1.929068,-2.751953 -3.070312,-2.751953 0,0 2.673826,-0.490051 2.673828,-2.388672 C 24.603516,36.759341 21.758133,36 18.732422,36 Z M 27,36 v 11 h 5.380859 C 33.78961,47 35.397719,46.699618 36.25,46.226562 38.328944,45.076794 39,43.241795 39,41.5 39,39.759423 38.323996,37.923145 36.251953,36.775391 35.399009,36.303547 33.78961,36 32.380859,36 Z m 18.435547,0 c -3.277743,0 -5.427735,1.054695 -5.427735,2.849609 0,1.733084 1.787336,2.501202 4.222657,3.476563 1.821954,0.723585 2.457031,1.127698 2.457031,1.818359 0,0.769767 -0.684369,1.386719 -2.333984,1.386719 -1.506562,0 -3.43846,-0.317876 -4.353516,-0.708984 V 46.65625 C 41.284194,46.879913 42.438093,47 44.113281,47 48.19156,47 50,45.740069 50,43.994141 50,42.297201 48.554051,41.520361 45.958984,40.513672 44.094043,39.7937 43.033203,39.395708 43.033203,38.5625 c 0,-0.574211 0.691312,-1.130859 2.310547,-1.130859 1.347491,0 2.19481,0.302033 3.15625,0.529297 V 36.285156 C 47.595892,36.109414 46.992415,36 45.435547,36 Z M 30,38 h 1.712891 C 34.342038,38 36,39.242371 36,41.513672 36,43.785681 34.342038,45 31.712891,45 H 30 Z"
       id="path6" /><path
       style="fill:#ffffff"
       d="M 18.732422,35 C 16.001557,35 14,35.380859 14,35.380859 v 1.6875 c 1.239518,-0.342264 2.630241,-0.634765 4.246094,-0.634765 1.734076,0 3.058593,0.591086 3.058594,1.425781 0,1.006421 -1.308445,1.580078 -4.125,1.580078 H 17 v 1.517578 h 0.08789 c 2.966952,0 4.654297,0.510257 4.654297,1.753907 0,1.110258 -1.509105,1.785156 -3.388672,1.785156 -1.638942,0 -3.137425,-0.397802 -4.353516,-0.783203 v 1.816406 C 14.584088,45.643917 16.133029,46 19.019531,46 22.216972,46 25,44.825412 25,42.755859 c 0,-1.735681 -1.929068,-2.751953 -3.070312,-2.751953 0,0 2.673826,-0.490051 2.673828,-2.388672 C 24.603516,35.759341 21.758133,35 18.732422,35 Z M 27,35 v 11 h 5.380859 C 33.78961,46 35.397719,45.699618 36.25,45.226562 38.328944,44.076794 39,42.241795 39,40.5 39,38.759423 38.323996,36.923145 36.251953,35.775391 35.399009,35.303547 33.78961,35 32.380859,35 Z m 18.435547,0 c -3.277743,0 -5.427735,1.054695 -5.427735,2.849609 0,1.733084 1.787336,2.501202 4.222657,3.476563 1.821954,0.723585 2.457031,1.127698 2.457031,1.818359 0,0.769767 -0.684369,1.386719 -2.333984,1.386719 -1.506562,0 -3.43846,-0.317876 -4.353516,-0.708984 V 45.65625 C 41.284194,45.879913 42.438093,46 44.113281,46 48.19156,46 50,44.740069 50,42.994141 50,41.297201 48.554051,40.520361 45.958984,39.513672 44.094043,38.7937 43.033203,38.395708 43.033203,37.5625 c 0,-0.574211 0.691312,-1.130859 2.310547,-1.130859 1.347491,0 2.19481,0.302033 3.15625,0.529297 V 35.285156 C 47.595892,35.109414 46.992415,35 45.435547,35 Z M 30,37 h 1.712891 C 34.342038,37 36,38.242371 36,40.513672 36,42.785681 34.342038,44 31.712891,44 H 30 Z"
       id="path7" /></g></svg>

<svg xmlns="http://www.w3.org/2000/svg" width="64" height="64" version="1.1">
 <path style="opacity:0.2" d="M 12.75,5 C 11.2265,5 10,6.2488 10,7.8 v 50.4 c 0,1.55008 1.2265,2.8 2.75,2.8 h 38.5 C 52.7724,61 54,59.75008 54,58.2 V 23 L 40,19 36,5 Z"/>
 <path style="fill:#df393f" d="M 12.75,4 C 11.2265,4 10,5.2488 10,6.8 v 50.4 c 0,1.55008 1.2265,2.8 2.75,2.8 h 38.5 C 52.7724,60 54,58.75008 54,57.2 V 22 L 40,18 36,4 Z"/>
 <path style="opacity:0.2" d="M 54,23 36,5 V 20.1875 C 36,21.74675 37.2555,23 38.8125,23 Z"/>
 <path style="fill:#e76d71" d="M 54,22 36,4 V 19.1875 C 36,20.74675 37.2555,22 38.8125,22 Z"/>
 <path style="opacity:0.2;fill:#ffffff" d="M 12.75,4 C 11.2265,4 10,5.2495812 10,6.8007812 v 1 C 10,6.2495813 11.2265,5 12.75,5 H 36 V 4 Z"/>
 <path style="opacity:0.2" d="M 18.732422,36 C 16.001557,36 14,36.380859 14,36.380859 v 1.6875 c 1.239518,-0.342264 2.630241,-0.634765 4.246094,-0.634765 1.734076,0 3.058593,0.591086 3.058594,1.425781 0,1.006421 -1.308445,1.580078 -4.125,1.580078 H 17 v 1.517578 h 0.08789 c 2.966952,0 4.654297,0.510257 4.654297,1.753907 0,1.110258 -1.509105,1.785156 -3.388672,1.785156 -1.638942,0 -3.137425,-0.397802 -4.353516,-0.783203 v 1.816406 C 14.584088,46.643917 16.133029,47 19.019531,47 22.216972,47 25,45.825412 25,43.755859 c 0,-1.735681 -1.929068,-2.751953 -3.070312,-2.751953 0,0 2.673826,-0.490051 2.673828,-2.388672 C 24.603516,36.759341 21.758133,36 18.732422,36 Z M 27,36 v 11 h 5.380859 C 33.78961,47 35.397719,46.699618 36.25,46.226562 38.328944,45.076794 39,43.241795 39,41.5 39,39.759423 38.323996,37.923145 36.251953,36.775391 35.399009,36.303547 33.78961,36 32.380859,36 Z m 18.435547,0 c -3.277743,0 -5.427735,1.054695 -5.427735,2.849609 0,1.733084 1.787336,2.501202 4.222657,3.476563 1.821954,0.723585 2.457031,1.127698 2.457031,1.818359 0,0.769767 -0.684369,1.386719 -2.333984,1.386719 -1.506562,0 -3.43846,-0.317876 -4.353516,-0.708984 V 46.65625 C 41.284194,46.879913 42.438093,47 44.113281,47 48.19156,47 50,45.740069 50,43.994141 50,42.297201 48.554051,41.520361 45.958984,40.513672 44.094043,39.7937 43.033203,39.395708 43.033203,38.5625 c 0,-0.574211 0.691312,-1.130859 2.310547,-1.130859 1.347491,0 2.19481,0.302033 3.15625,0.529297 V 36.285156 C 47.595892,36.109414 46.992415,36 45.435547,36 Z M 30,38 h 1.712891 C 34.342038,38 36,39.242371 36,41.513672 36,43.785681 34.342038,45 31.712891,45 H 30 Z"/>
 <path style="fill:#ffffff" d="M 18.732422 35 C 16.001557 35 14 35.380859 14 35.380859 L 14 37.068359 C 15.239518 36.726095 16.630241 36.433594 18.246094 36.433594 C 19.98017 36.433594 21.304687 37.02468 21.304688 37.859375 C 21.304688 38.865796 19.996243 39.439453 17.179688 39.439453 L 17 39.439453 L 17 40.957031 L 17.087891 40.957031 C 20.054843 40.957031 21.742188 41.467288 21.742188 42.710938 C 21.742188 43.821196 20.233083 44.496094 18.353516 44.496094 C 16.714574 44.496094 15.216091 44.098292 14 43.712891 L 14 45.529297 C 14.584088 45.643917 16.133029 46 19.019531 46 C 22.216972 46 25 44.825412 25 42.755859 C 25 41.020178 23.070932 40.003906 21.929688 40.003906 C 21.929688 40.003906 24.603514 39.513855 24.603516 37.615234 C 24.603516 35.759341 21.758133 35 18.732422 35 z M 27 35 L 27 46 L 32.380859 46 C 33.78961 46 35.397719 45.699618 36.25 45.226562 C 38.328944 44.076794 39 42.241795 39 40.5 C 39 38.759423 38.323996 36.923145 36.251953 35.775391 C 35.399009 35.303547 33.78961 35 32.380859 35 L 27 35 z M 45.435547 35 C 42.157804 35 40.007812 36.054695 40.007812 37.849609 C 40.007812 39.582693 41.795148 40.350811 44.230469 41.326172 C 46.052423 42.049757 46.6875 42.45387 46.6875 43.144531 C 46.6875 43.914298 46.003131 44.53125 44.353516 44.53125 C 42.846954 44.53125 40.915056 44.213374 40 43.822266 L 40 45.65625 C 41.284194 45.879913 42.438093 46 44.113281 46 C 48.19156 46 50 44.740069 50 42.994141 C 50 41.297201 48.554051 40.520361 45.958984 39.513672 C 44.094043 38.7937 43.033203 38.395708 43.033203 37.5625 C 43.033203 36.988289 43.724515 36.431641 45.34375 36.431641 C 46.691241 36.431641 47.53856 36.733674 48.5 36.960938 L 48.5 35.285156 C 47.595892 35.109414 46.992415 35 45.435547 35 z M 30 37 L 31.712891 37 C 34.342038 37 36 38.242371 36 40.513672 C 36 42.785681 34.342038 44 31.712891 44 L 30 44 L 30 37 z"/>
</svg>
